packages/core/src/svgs/cas.svg

<svg width="24" height="24" viewBox="0 0 24 24" fill="none" xmlns="http://www.w3.org/2000/svg">
<g clip-path="url(#clip0_31_7701)">
<path d="M0 0H24V24H0V0Z" fill="#0723A1"/>
<path fill-rule="evenodd" clip-rule="evenodd" d="M10.2836 4.71436H8.57143V7.3055C7.78276 7.809 7.13372 8.50316 6.68428 9.32384C6.23484 10.1445 5.99949 11.0652 6 12.0009C5.99949 12.9366 6.23484 13.8573 6.68428 14.678C7.13372 15.4987 7.78276 16.1929 8.57143 16.6964V19.2858H10.2836V17.4228C10.6971 17.5205 11.1279 17.5728 11.5714 17.5728C12.0137 17.5728 12.4444 17.5209 12.8571 17.4232V19.2858H14.5714V16.6968C14.8791 16.4996 15.1663 16.2734 15.4286 16.0214V17.5728H17.1429V12.0121V12.0005V6.85721H15.4286V7.9805C15.1655 7.72811 14.8784 7.50204 14.5714 7.3055V4.71436H12.8571V6.57864C12.4358 6.4793 12.0043 6.42925 11.5714 6.4295C11.1283 6.4295 10.6971 6.48093 10.2836 6.5795V4.71436ZM15.4286 12.0001C15.4286 10.9771 15.0222 9.99601 14.2988 9.27266C13.5755 8.5493 12.5944 8.14293 11.5714 8.14293C10.5485 8.14293 9.56737 8.5493 8.84402 9.27266C8.12066 9.99601 7.71429 10.9771 7.71429 12.0001C7.71429 13.023 8.12066 14.0041 8.84402 14.7275C9.56737 15.4508 10.5485 15.8572 11.5714 15.8572C12.5944 15.8572 13.5755 15.4508 14.2988 14.7275C15.0222 14.0041 15.4286 13.023 15.4286 12.0001Z" fill="white"/>
</g>
<defs>
<clipPath id="clip0_31_7701">
<rect width="24" height="24" fill="white"/>
</clipPath>
</defs>
</svg>

<svg xmlns="http://www.w3.org/2000/svg" width="24" height="24" fill="none" viewBox="0 0 24 24"><g clip-path="url(#a)"><path fill="#0723A1" d="M0 0h24v24H0z"/><path fill="#fff" fill-rule="evenodd" d="M10.284 4.714H8.57v2.592A5.57 5.57 0 0 0 6 12a5.57 5.57 0 0 0 2.571 4.695v2.59h1.713v-1.863a5.6 5.6 0 0 0 2.573 0v1.863h1.714v-2.59q.463-.296.858-.675v1.552h1.714V6.857h-1.714v1.124a5.6 5.6 0 0 0-.858-.675V4.714h-1.714V6.58a5.6 5.6 0 0 0-2.573 0zM15.429 12a3.857 3.857 0 1 0-7.714 0 3.857 3.857 0 0 0 7.714 0" clip-rule="evenodd"/></g><defs><clipPath id="a"><path fill="#fff" d="M0 0h24v24H0z"/></clipPath></defs></svg>
